!!!SOCIAL_FUNCTION:	songs connected with legends
!!!PDT:	1929
!!!OTL: No_27_Song_of_the_Old_Woman_Who_Attended_Elder_Brother.krn
!!!REG: Southwest
!!!LANG: Non-Tone
!!!LING_GROUP: Uto-Aztecan
**kern
*staff1
*clefF4
*k[f#c#g#d#a#]
*M2/4
8F#\L
8F#\J
=1
8c#\L
8c#\J
8c#\L
8c#\J
=2
8c#\L
8c#\J
8d#\L
8c#\J
=3
8c#\L
8B\J
8G#\L
8G#\J
=4||
*M3/4
8F#\L
8F#\J
8F#\L
16F#\L
16E\JJ
8G#\L
8G#\J
=5||
*M2/4
4.F#\
8F#\
=6||
*M3/4
4F#\
8F#\
8r
8F#\L
8F#\J
=7||
*M2/4
8c#\L
8c#\J
8c#\L
8c#\J
=8
8c#\L
8c#\J
8d#\L
8c#\J
=9
8c#\L
8B\J
8G#\L
8G#\J
=10||
*M3/4
8F#\L
8F#\J
8F#\L
16F#\L
16E\JJ
8G#\L
8G#\J
=11||
*M2/4
4.F#\
8F#\
=12
4F#\
8F#\
8r
=13!|:
8F#\L
8E\J
8G#\L
8G#\J
=14
8.B\L
16G#\Jk
8B\L
8F#\J
=15
8.G#\L
16F#\Jk
8G#\L
8D#\J
=16
4F#\
8F#\
8r
=17
8G#\L
8G#\J
8G#\L
8E\J
=18
4F#\
8E/L
8C#/J
=19
8F#\L
[8F#\J
8F#\L]
8F#\J
=20
2F#\
==:|!
*-
